packages/orbit-components/src/icons/svg/suitcase.svg

<!--character:107:550:822-->
  <svg width="24" height="24" viewBox="0 0 24 24" >
<path   d="M19.9167 6.99331H16.4167C16.1667 6.99331 16 6.82664 16 6.57664V5.74331C16 4.57664 15.0833 3.65997 13.9167 3.65997H10.1667C9 3.65997 8 4.57664 8 5.74331V6.57664C8 6.82664 7.83333 6.99331 7.66667 6.99331H4.08333C2.91667 6.99331 2 7.90997 2 9.07664V18.2433C2 19.41 2.91667 20.3266 4.08333 20.3266H19.9167C21.0833 20.3266 22 19.41 22 18.2433V9.07664C22 7.90997 21.0833 6.99331 19.9167 6.99331ZM14.3333 6.57666C14.3333 6.82666 14.1667 6.99333 13.9167 6.99333H10.1667C9.91666 6.99333 9.66666 6.82666 9.66666 6.57666V5.74333C9.74999 5.49333 9.91666 5.32666 10.1667 5.32666H13.9167C14.1667 5.32666 14.3333 5.49333 14.3333 5.74333V6.57666ZM16.1667 11.16C16.1667 12.0766 16.9167 12.8266 17.8333 12.8266C18.75 12.8266 19.5 12.0766 19.5 11.16C19.5 10.2433 18.75 9.49329 17.8333 9.49329C16.9167 9.49329 16.1667 10.2433 16.1667 11.16Z" />
</svg>

<!--character:107:550:822-->
<svg width="24" height="24" viewBox="0 0 24 24" xmlns="http://www.w3.org/2000/svg"><path d="M19.9167 6.9933h-3.5c-.25 0-.4167-.1666-.4167-.4166v-.8334c0-1.1666-.9167-2.0833-2.0833-2.0833h-3.75C9 3.66 8 4.5767 8 5.7433v.8334c0 .25-.1667.4166-.3333.4166H4.0833C2.9167 6.9933 2 7.91 2 9.0767v9.1666c0 1.1667.9167 2.0834 2.0833 2.0834h15.8334c1.1666 0 2.0833-.9167 2.0833-2.0834V9.0767c0-1.1667-.9167-2.0834-2.0833-2.0834zm-5.5834-.4166c0 .25-.1666.4166-.4166.4166h-3.75c-.25 0-.5-.1666-.5-.4166v-.8334c.0833-.25.25-.4166.5-.4166h3.75c.25 0 .4166.1666.4166.4166v.8334zm3.5 6.25c-.9166 0-1.6666-.75-1.6666-1.6667 0-.9167.75-1.6667 1.6666-1.6667.9167 0 1.6667.75 1.6667 1.6667 0 .9167-.75 1.6667-1.6667 1.6667z"/></svg></svg>
